assets/v1/icons/rust.svg

<svg xmlns="http://www.w3.org/2000/svg" xml:space="preserve" width="21.333" height="21.333" viewBox="0 0 21.333 21.333"><defs><clipPath id="a" clipPathUnits="userSpaceOnUse"><path d="M0 16h16V0H0Z"/></clipPath><clipPath id="b" clipPathUnits="userSpaceOnUse"><path d="M2 16h4v-4H2Z"/></clipPath><clipPath id="c" clipPathUnits="userSpaceOnUse"><path d="M1 7h15V0H1Z"/></clipPath><clipPath id="d" clipPathUnits="userSpaceOnUse"><path d="M2 16h11V8H2Z"/></clipPath><clipPath id="e" clipPathUnits="userSpaceOnUse"><path d="M7.29 6.01H11V1.047H7.29Z"/></clipPath><clipPath id="f" clipPathUnits="userSpaceOnUse"><path d="M2.792 5.969h4.232V1.046H2.792Z"/></clipPath></defs><g clip-path="url(#a)" transform="matrix(1.33333 0 0 -1.33333 0 21.333)"><g clip-path="url(#b)" opacity=".7"><path d="m0 0-4-4h4Z" style="fill:#9aa7b0;fill-opacity:1;fill-rule:nonzero;stroke:none" transform="translate(6 16)"/></g><g clip-path="url(#c)" opacity=".6"><path d="M1 7h15V0H1Z" style="fill:#bd9662;fill-opacity:1;fill-rule:nonzero;stroke:none"/></g><g clip-path="url(#d)" opacity=".7"><path d="M0 0v-5h-5v-3H6v8z" style="fill:#9aa7b0;fill-opacity:1;fill-rule:nonzero;stroke:none" transform="translate(7 16)"/></g><g clip-path="url(#e)" opacity=".6"><path d="M0 0c1-.197 1.2-.396 1.2-.691-.1-.396-.5-.693-.9-.594h-1.5v-.79H.3c.9-.099 1.7.395 1.8 1.284v.198C2.1.198 1.5.593.5.791s-1.2.396-1.2.79c.1.396.4.594.8.594h1.4v.691H.1c-.8.099-1.6-.494-1.7-1.285v-.099C-1.7.593-1 .297 0 0" style="fill:#231f20;fill-opacity:1;fill-rule:nonzero;stroke:none" transform="translate(8.9 3.134)"/></g><g clip-path="url(#f)" opacity=".6"><path d="M0 0h.703q.684 0 .855.061.17.06.266.209.096.145.096.369a.6.6 0 0 1-.127.401.58.58 0 0 1-.357.192 7 7 0 0 1-.694.018H0Zm-.951-2.841v4.923H1.05q.754 0 1.096-.132a1.1 1.1 0 0 0 .548-.472 1.47 1.47 0 0 0 .205-.776q0-.554-.311-.916-.312-.359-.931-.454.308-.19.509-.413.2-.225.541-.799l.575-.961H2.145L1.458-1.77q-.366.574-.501.724a.7.7 0 0 1-.286.204Q.52-.785.193-.785H0v-2.056z" style="fill:#231f20;fill-opacity:1;fill-rule:nonzero;stroke:none" transform="translate(3.743 3.887)"/></g></g></svg>

<!--
https://github.com/intellij-rust/intellij-rust/blob/master/art/icons/rust-file.ai

The MIT License (MIT)

Copyright (c) 2015 Aleksey Kladov, Evgeny Kurbatsky, Alexey Kudinkin and contributors
Copyright (c) 2016 JetBrains

Permission is hereby granted, free of charge, to any person obtaining a copy
of this software and associated documentation files (the "Software"), to deal
in the Software without restriction, including without limitation the rights
to use, copy, modify, merge, publish, distribute, sublicense, and/or sell
copies of the Software, and to permit persons to whom the Software is
furnished to do so, subject to the following conditions:

The above copyright notice and this permission notice shall be included in all
copies or substantial portions of the Software.

THE SOFTWARE IS PROVIDED "AS IS", WITHOUT WARRANTY OF ANY KIND, EXPRESS OR
IMPLIED, INCLUDING BUT NOT LIMITED TO THE WARRANTIES OF MERCHANTABILITY,
FITNESS FOR A PARTICULAR PURPOSE AND NONINFRINGEMENT. IN NO EVENT SHALL THE
AUTHORS OR COPYRIGHT HOLDERS BE LIABLE FOR ANY CLAIM, DAMAGES OR OTHER
LIABILITY, WHETHER IN AN ACTION OF CONTRACT, TORT OR OTHERWISE, ARISING FROM,
OUT OF OR IN CONNECTION WITH THE SOFTWARE OR THE USE OR OTHER DEALINGS IN THE
SOFTWARE.
-->

<svg
   xmlns:dc="http://purl.org/dc/elements/1.1/"
   xmlns:cc="http://creativecommons.org/ns#"
   xmlns:rdf="http://www.w3.org/1999/02/22-rdf-syntax-ns#"
   xmlns:svg="http://www.w3.org/2000/svg"
   xmlns="http://www.w3.org/2000/svg"
   xmlns:sodipodi="http://sodipodi.sourceforge.net/DTD/sodipodi-0.dtd"
   xmlns:inkscape="http://www.inkscape.org/namespaces/inkscape"
   version="1.1"
   id="svg2"
   xml:space="preserve"
   width="21.333332"
   height="21.333332"
   viewBox="0 0 21.333332 21.333332"
   sodipodi:docname="rust-file.ai"><metadata
     id="metadata8"><rdf:RDF><cc:Work
         rdf:about=""><dc:format>image/svg+xml</dc:format><dc:type
           rdf:resource="http://purl.org/dc/dcmitype/StillImage" /></cc:Work></rdf:RDF></metadata><defs
     id="defs6"><clipPath
       clipPathUnits="userSpaceOnUse"
       id="clipPath18"><path
         d="M 0,16 H 16 V 0 H 0 Z"
         id="path16" /></clipPath><clipPath
       clipPathUnits="userSpaceOnUse"
       id="clipPath26"><path
         d="M 2,16 H 6 V 12 H 2 Z"
         id="path24" /></clipPath><clipPath
       clipPathUnits="userSpaceOnUse"
       id="clipPath42"><path
         d="M 1,7 H 16 V 0 H 1 Z"
         id="path40" /></clipPath><clipPath
       clipPathUnits="userSpaceOnUse"
       id="clipPath56"><path
         d="M 2,16 H 13 V 8 H 2 Z"
         id="path54" /></clipPath><clipPath
       clipPathUnits="userSpaceOnUse"
       id="clipPath72"><path
         d="M 7.2905,6.01091 H 11 V 1.0459 H 7.2905 Z"
         id="path70" /></clipPath><clipPath
       clipPathUnits="userSpaceOnUse"
       id="clipPath88"><path
         d="M 2.79199,5.96863 H 7.02441 V 1.0459 H 2.79199 Z"
         id="path86" /></clipPath></defs><sodipodi:namedview
     pagecolor="#ffffff"
     bordercolor="#666666"
     borderopacity="1"
     objecttolerance="10"
     gridtolerance="10"
     guidetolerance="10"
     inkscape:pageopacity="0"
     inkscape:pageshadow="2"
     inkscape:window-width="640"
     inkscape:window-height="480"
     id="namedview4" /><g
     id="g10"
     inkscape:groupmode="layer"
     inkscape:label="rust-file"
     transform="matrix(1.3333333,0,0,-1.3333333,0,21.333333)"><g
       id="g12"><g
         id="g14"
         clip-path="url(#clipPath18)"><g
           id="g20"><g
             id="g22" /><g
             id="g34"><g
               clip-path="url(#clipPath26)"
               opacity="0.699997"
               id="g32"><g
                 transform="translate(6,16)"
                 id="g30"><path
                   d="M 0,0 -4,-4 H 0 Z"
                   style="fill:#9aa7b0;fill-opacity:1;fill-rule:nonzero;stroke:none"
                   id="path28" /></g></g></g></g><g
           id="g36"><g
             id="g38" /><g
             id="g48"><g
               clip-path="url(#clipPath42)"
               opacity="0.600006"
               id="g46"><path
                 d="M 1,7 H 16 V 0 H 1 Z"
                 style="fill:#bd9662;fill-opacity:1;fill-rule:nonzero;stroke:none"
                 id="path44" /></g></g></g><g
           id="g50"><g
             id="g52" /><g
             id="g64"><g
               clip-path="url(#clipPath56)"
               opacity="0.699997"
               id="g62"><g
                 transform="translate(7,16)"
                 id="g60"><path
                   d="M 0,0 V -4 -5 H -1 -5 V -8 H 6 v 8 z"
                   style="fill:#9aa7b0;fill-opacity:1;fill-rule:nonzero;stroke:none"
                   id="path58" /></g></g></g></g><g
           id="g66"><g
             id="g68" /><g
             id="g80"><g
               clip-path="url(#clipPath72)"
               opacity="0.600006"
               id="g78"><g
                 transform="translate(8.8999,3.1338)"
                 id="g76"><path
                   d="M 0,0 C 1,-0.197 1.2,-0.396 1.2,-0.691 1.1,-1.087 0.7,-1.384 0.3,-1.285 h -1.5 v -0.79 H 0.3 C 1.2,-2.174 2,-1.68 2.1,-0.791 v 0.198 c 0,0.791 -0.6,1.186 -1.6,1.384 -1,0.197 -1.2,0.396 -1.2,0.79 0.1,0.396 0.4,0.594 0.8,0.594 H 1.5 V 2.866 H 0.2 0.1 C -0.7,2.965 -1.5,2.372 -1.6,1.581 V 1.482 C -1.7,0.593 -1,0.297 0,0"
                   style="fill:#231f20;fill-opacity:1;fill-rule:nonzero;stroke:none"
                   id="path74" /></g></g></g></g><g
           id="g82"><g
             id="g84" /><g
             id="g96"><g
               clip-path="url(#clipPath88)"
               opacity="0.600006"
               id="g94"><g
                 transform="translate(3.7427,3.8867)"
                 id="g92"><path
                   d="M 0,0 H 0.703 C 1.159,0 1.444,0.02 1.558,0.061 1.671,0.101 1.76,0.17 1.824,0.27 1.888,0.367 1.92,0.49 1.92,0.639 1.92,0.804 1.878,0.937 1.793,1.04 1.709,1.141 1.589,1.205 1.436,1.232 1.358,1.244 1.127,1.25 0.742,1.25 H 0 Z M -0.951,-2.841 V 2.082 H 1.05 C 1.553,2.082 1.918,2.038 2.146,1.95 2.375,1.86 2.557,1.704 2.694,1.478 2.831,1.251 2.899,0.993 2.899,0.702 2.899,0.333 2.796,0.027 2.588,-0.214 2.38,-0.453 2.07,-0.605 1.657,-0.668 1.862,-0.794 2.032,-0.932 2.166,-1.081 2.3,-1.231 2.48,-1.498 2.707,-1.88 L 3.282,-2.841 H 2.145 L 1.458,-1.77 c -0.244,0.383 -0.411,0.624 -0.501,0.724 -0.09,0.1 -0.185,0.168 -0.286,0.204 -0.101,0.038 -0.26,0.057 -0.478,0.057 H 0 v -2.056 z"
                   style="fill:#231f20;fill-opacity:1;fill-rule:nonzero;stroke:none"
                   id="path90" /></g></g></g></g></g></g></g></svg>
